X: 21362
T: MAGGIE'S TOCHER
Q: "Tenderly"
%R: slip-jig
B: "Edinburgh Repository of Music" v.2 p.136 #2
F: http://digital.nls.uk/special-collections-of-printed-music/pageturner.cfm?id=87776133
Z: 2015 John Chambers <jc:trillian.mit.edu>
M: 9/8
L: 1/8
K: Am
E |\
{d}c>Bc dcB cBA | ^GAB B2A ^G^FE | cBc {e}dcd e2e |\
EAA A2B cBA :||: G2g g>ag {a}gfe | d2c BcA ^G2E |
A2a a2b c'ba | e2a a2b c'ba | g2g ~g>ag gfe |\
d2c BcA ^G^FE | c>Bc {e}d>cd e2e | E<AA A2B {d}cBA :|

% - - - - tune continued onto next page - - - - %

%%sep 2 1 500
%%sep 1 1 500

